src/main/resources/icons/SHIcons/META-INF/pluginIcon_dark.svg

<svg xmlns="http://www.w3.org/2000/svg" width="40" height="40" viewBox="0 0 40 40">
  <path fill="#AFB1B3" fill-rule="evenodd" d="M6,7 L34,7 C35.1045695,7 36,7.8954305 36,9 L36,31 C36,32.1045695 35.1045695,33 34,33 L6,33 C4.8954305,33 4,32.1045695 4,31 L4,9 C4,7.8954305 4.8954305,7 6,7 Z M18.3743687,21.8388348 L20.1421356,20.0710678 L13.0710678,13 L11.3033009,14.767767 L16.6066017,20.0710678 L11.3033009,25.3743687 L13.0710678,27.1421356 L18.3743687,21.8388348 Z"/>
</svg>

<svg xmlns="http://www.w3.org/2000/svg" width="40" height="40" viewBox="0 0 40 40"><rect id="frame" width="40" height="40" fill="none"/><path fill="#AFB1B3" fill-rule="evenodd" d="M6 7h28a2 2 0 0 1 2 2v22a2 2 0 0 1-2 2H6a2 2 0 0 1-2-2V9a2 2 0 0 1 2-2zm12.374 14.839l1.768-1.768L13.072 13l-1.769 1.768 5.304 5.303-5.304 5.303 1.768 1.768 5.303-5.303z"/></svg>
